archdroid-icon-theme/Archdroid-Lime/apps/scalable/terminal-symbolic.svg

<svg fill="#CDDC39" height="48" viewBox="0 0 48 48" width="48" xmlns="http://www.w3.org/2000/svg"><g fill="#CDDC39"><path d="m8 6c-2.216 0-4 1.784-4 4v28c0 2.216 1.784 4 4 4h32c2.216 0 4-1.784 4-4v-28c0-2.216-1.784-4-4-4zm0 4h32v28h-32z" stroke-width="3"/><text font-family="Inconsolata" font-size="20" font-weight="bold" letter-spacing="0" word-spacing="0" x="11.26" y="25.639999"><tspan fill="#CDDC39" font-family="Inconsolata" font-size="20" font-weight="bold" x="11.26" y="25.639999">&gt;_</tspan></text></g></svg>

<svg fill="#CDDC39" height="48" version="1.1" viewBox="0 0 48 48" width="48" xmlns="http://www.w3.org/2000/svg"><path d="M8 6C5.784 6 4 7.784 4 10L4 38C4 40.216 5.784 42 8 42L40 42C42.216 42 44 40.216 44 38L44 10C44 7.784 42.216 6 40 6L8 6zM8 10L40 10 40 38 8 38 8 10z" fill="#CDDC39" stroke-width="3"/><text fill="#CDDC39" font-family="Inconsolata" font-size="20" font-weight="bold" letter-spacing="0" line-height="100%" word-spacing="0" x="11.26" xml:space="preserve" y="25.639999"><tspan fill="#CDDC39" font-family="Inconsolata" font-size="20" font-weight="bold" line-height="100%" x="11.26" y="25.639999">&gt;_</tspan></text></svg>
